build/img/icons/services/3.svg

<svg width="52" height="52" viewBox="0 0 52 52" fill="none" xmlns="http://www.w3.org/2000/svg">
<g clip-path="url(#clip0)">
<path d="M42.1541 4.86384C43.4668 4.86384 44.531 3.79971 44.531 2.48703C44.531 1.17436 43.4668 0.110229 42.1541 0.110229C40.8415 0.110229 39.7773 1.17436 39.7773 2.48703C39.7773 3.79971 40.8415 4.86384 42.1541 4.86384Z" fill="#9BA4D3"/>
<path fill-rule="evenodd" clip-rule="evenodd" d="M38.5686 9.29394L39.536 10.2209C40.2925 9.86493 41.3777 8.24205 42.154 7.77848C42.943 8.30857 44.0592 9.88209 44.7944 10.2423C45.0519 9.86619 45.365 9.55323 45.7405 9.29616C45.59 8.98248 42.672 5.90687 42.1541 5.90369C41.6446 5.90057 40.5877 7.14559 40.2759 7.45844C39.8609 7.87487 38.7889 8.79031 38.5686 9.29394Z" fill="#9BA4D3"/>
<path fill-rule="evenodd" clip-rule="evenodd" d="M41.1104 19.6801L42.4343 20.2397C42.7534 19.8798 42.8562 19.0749 42.8926 18.5466L41.3724 18.42L41.1104 19.6801Z" fill="#9BA4D3"/>
<path fill-rule="evenodd" clip-rule="evenodd" d="M40.114 22.815C40.6087 22.6293 41.2834 22.1012 41.5008 21.665C40.9705 21.3691 40.869 21.0985 40.4289 20.7152L39.4043 21.5202L40.114 22.815Z" fill="#9BA4D3"/>
<path fill-rule="evenodd" clip-rule="evenodd" d="M41.3752 16.945L42.9244 16.9443L42.913 15.4052L41.4334 15.4158L41.3752 16.945Z" fill="#9BA4D3"/>
<path fill-rule="evenodd" clip-rule="evenodd" d="M36.8014 23.52L38.3646 23.4421C38.4681 23.0396 38.3115 22.276 38.1332 21.9474L36.7945 21.9817L36.8014 23.52Z" fill="#9BA4D3"/>
<path fill-rule="evenodd" clip-rule="evenodd" d="M41.3796 13.8815L42.9244 13.8809L42.9114 12.3516L41.4334 12.35L41.3796 13.8815Z" fill="#9BA4D3"/>
<path fill-rule="evenodd" clip-rule="evenodd" d="M41.3839 10.8121L42.9244 10.8194L42.9078 9.28778L41.4335 9.28406L41.3839 10.8121Z" fill="#9BA4D3"/>
<path d="M32.4411 13.0136C31.7699 18.1637 29.0404 21.8694 24.8542 21.8742C20.6679 21.879 17.846 18.4951 17.3017 12.9828C16.7935 8.11691 20.7024 4.127 24.8886 4.1222C29.0747 4.11626 33.0898 8.17521 32.4411 13.0136Z" fill="white"/>
<path d="M16.9639 13.463C16.9639 13.463 18.0296 10.1267 21.2693 7.79028C26.0066 11.7986 30.5499 11.4232 32.0121 11.4363C35.3153 11.4332 36.5824 5.5257 36.5824 5.5257C36.5824 5.5257 34.2183 4.74946 30.8547 1.99798C27.9423 -0.371452 24.6509 -0.523675 20.1103 0.964076C15.0469 3.19849 14.3068 7.51552 16.9639 13.463Z" fill="#9BA4D3"/>
<path d="M28.3208 17.7693L28.318 25.414L24.7247 32.0757L21.4718 25.579L21.5223 17.7725L28.3208 17.7693Z" fill="white"/>
<path d="M43.5333 28.8792C40.8824 32.2824 37.3014 35.0035 33.0585 36.5724C29.897 36.3932 30.0696 33.6433 30.07 33.6346L30.1536 31.9456H19.6394L19.7229 33.6346C19.7234 33.6435 19.9033 36.5139 16.5232 36.5802C12.5099 35.0897 8.9542 32.5311 6.25922 29.1802C9.45766 27.7953 12.8475 26.7255 16.3922 26.0209C25.8571 24.2107 35.2251 25.3957 43.5333 28.8792ZM30.2733 37.4102C29.9722 37.4808 29.6686 37.5463 29.3622 37.6057C25.9673 38.2723 22.6063 38.1833 19.4493 37.4566C21.4892 36.1442 21.33 33.559 21.33 33.559H28.463C28.463 33.559 28.3075 36.0843 30.2733 37.4102Z" fill="#9BA4D3"/>
<path d="M21.33 33.559C21.33 33.559 21.6617 38.9228 15.2749 38.1208C15.2749 47.7424 24.8965 52.0002 24.8965 52.0002C24.8965 52.0002 34.5181 47.7424 34.5181 38.1208C28.1312 38.9228 28.463 33.559 28.463 33.559H21.33Z" fill="#DADBED"/>
<path d="M24.8134 45.7794L20.9428 43.0975L22.0212 41.5217L24.4816 43.2082L27.3846 39.7797L28.8501 41.0237L24.8134 45.7794Z" fill="#393D5D"/>
</g>
<defs>
<clipPath id="clip0">
<rect width="52" height="52" fill="white"/>
</clipPath>
</defs>
</svg>

<svg width="52" height="52" viewBox="0 0 52 52" fill="none" xmlns="http://www.w3.org/2000/svg"><g clip-path="url(#clip0)"><path d="M42.154 4.864a2.377 2.377 0 100-4.754 2.377 2.377 0 000 4.754z" fill="#9BA4D3"/><path fill-rule="evenodd" clip-rule="evenodd" d="M38.569 9.294l.967.927c.756-.356 1.842-1.979 2.618-2.443.789.53 1.905 2.104 2.64 2.464.258-.376.571-.689.947-.946-.151-.314-3.069-3.39-3.587-3.392-.51-.003-1.566 1.242-1.878 1.554-.415.417-1.487 1.332-1.707 1.836zM41.11 19.68l1.324.56c.32-.36.422-1.165.459-1.693l-1.52-.127-.263 1.26zm-.996 3.135c.495-.186 1.17-.714 1.387-1.15-.53-.296-.632-.566-1.072-.95l-1.025.805.71 1.295zm1.261-5.87h1.55l-.012-1.54-1.48.01-.058 1.53zm-4.574 6.575l1.564-.078c.103-.402-.053-1.166-.232-1.495l-1.339.035.007 1.538zm4.579-9.638l1.544-.001-.013-1.53-1.478-.001-.053 1.532z" fill="#9BA4D3"/><path fill-rule="evenodd" clip-rule="evenodd" d="M41.384 10.812l1.54.007-.016-1.531-1.474-.004-.05 1.528z" fill="#9BA4D3"/><path d="M32.441 13.014c-.671 5.15-3.4 8.855-7.587 8.86-4.186.005-7.008-3.379-7.552-8.891-.508-4.866 3.4-8.856 7.587-8.86 4.186-.007 8.2 4.052 7.552 8.89z" fill="#fff"/><path d="M16.964 13.463s1.066-3.336 4.305-5.673c4.738 4.009 9.28 3.633 10.743 3.646 3.303-.003 4.57-5.91 4.57-5.91s-2.364-.777-5.727-3.528C27.942-.372 24.65-.524 20.11.964c-5.063 2.234-5.803 6.552-3.146 12.499z" fill="#9BA4D3"/><path d="M28.32 17.77l-.002 7.644-3.593 6.662-3.253-6.497.05-7.806 6.799-.004z" fill="#fff"/><path d="M43.533 28.88c-2.65 3.402-6.232 6.124-10.474 7.692-3.162-.179-2.99-2.929-2.989-2.937l.084-1.69H19.639l.084 1.69c0 .009.18 2.879-3.2 2.945a23.835 23.835 0 01-10.264-7.4 50.04 50.04 0 0110.133-3.16c9.465-1.81 18.833-.624 27.141 2.86zm-13.26 8.53c-.3.07-.604.136-.91.196a23.713 23.713 0 01-9.914-.15c2.04-1.312 1.881-3.897 1.881-3.897h7.133s-.155 2.525 1.81 3.851z" fill="#9BA4D3"/><path d="M21.33 33.559s.332 5.364-6.055 4.562c0 9.621 9.621 13.88 9.621 13.88s9.622-4.259 9.622-13.88c-6.387.802-6.055-4.562-6.055-4.562H21.33z" fill="#DADBED"/><path d="M24.813 45.78l-3.87-2.683 1.078-1.575 2.46 1.686 2.904-3.428 1.465 1.244-4.037 4.755z" fill="#393D5D"/></g><defs><clipPath id="clip0"><path fill="#fff" d="M0 0h52v52H0z"/></clipPath></defs></svg>
